!!!COM: Robert Franz
!!!CNT: Deutscher
!!!TXO: Deutsche 
!!!OTL: Wonne der Wehmuth
!!!OPS: Op. 33
!!!ONM: No. 1
!!!ONB: Original key: bb minor
!!!LYR: Goethe
!!!ENC: Brian Bice
!!!YOR: Vocal Album, G. Schirmer, Inc., 1907
!!!ODT: 1864/
!!NB: Vocal melody and text only encoded.
**kern	**silbe
*clefG2	*
*k[b-e-]	*
*M2/4	*
=2	=2
{4.d	{Trock-
8b-	-net
=3	=3
(4a	nicht,
8g)}	|}
8r	.
=5	=5
{4.g	{trock-
8ee-	-net
=6	=6
(4dd	nicht
8cc)}	|}
8r	.
=7	=7
{4dd	{Thra2-
8a	-nen
8cc	der
=8	=8
4b-	e-
8a	-wi-
8g	-gen
=9	=9
4a	Lie-
8a}	-be!}
8r	.
=11	=11
{4f	{Ach!
(12a-	nur
12g)	|
12f	dem
=12	=12
8dd	halb-
8bn	-ge-
8g	-trock-
16f	-ne-
16f	-ten
=13	=13
4e-	Au-
8g}	-ge,}
8r	.
=14	=14
{4g	{wie
12b-	o2-
12a	-de,
12g	wie
=15	=15
8een	todt
8cc#	die
8a	Welt
16g	ihm
16g	er-
=16	=16
(4f#	-scheint!
8a)}	|}
8r	.
=17	=17
{4.d	{Trock-
8b-	-net
=18	=18
(4a	nicht,
8g)}	|}
8r	.
=19	=19
{4.g	{trock-
8ee-	-net
=20	=20
(4dd	nicht
8cc)}	|}
8r	.
=21	=21
{4b-	{Thra2-
8a	-nen
8a	un-
=22	=22
4dd	-glu2ck-
8cc	-li-
8b-	-cher
=23	=23
(4a	Lie-
12g	|
12a	|
12b-)	|
=24	=24
[4a	-be!
8a]}	|}
8r	.
*-	*-
